albertroad.htmlalbertroad.htmlalbertroad.htmlalbertroad.htmlalbertroad.htmlalbertroad.htmlalbertroad.html<P ALIGN=Right>Scott Skinner
albertroad.htmlalbertroad.html<PRE>T:Gladstone, The
T:Gladstone, The
M:C|
L:1/8
C:Scott Skinner
R:reel
D:Michelle O'Brien, Aogan Lynch and Gavin Ralston
Z:Devin McCabe
K:A
cAdA efga|A/2A/2A cA BG~E2|EBcd efga|1e/2d/2c dB Afed:|2e/2d/2c dB Aefg||
!aAba gAag|fAaf edce|d~B3 ceAc|~B3c defg|
!aA A/2A/2A eAce|aAge fece|d/2d/2d fd ceaf|ecdB Afed||
albertroad.htmlalbertroad.htmlalbertroad.htmlalbertroad.htmlalbertroad.htmlalbertroad.htmlalbertroad.html